li/brand-researchgate.svg

<svg role="img" focusable="false" aria-hidden="true" xmlns="http://www.w3.org/2000/svg" viewBox="0 0 14 14" height="1em" width="1em">
  <path d="M 1,1 1,13 13,13 13,1 1,1 Z M 8.0232143,9.95714 C 7.8464286,10.0375 7.1339286,10.11786 6.6839286,9.57679 6.4375,9.29286 6.00625,8.68482 5.5535714,7.87321 c -0.2383928,0 -0.39375,0 -0.5732143,-0.0161 l 0,1.24286 c 0,0.62946 0.1607143,0.56786 0.6910715,0.64018 l 0,0.21696 c -0.1848215,-0.008 -0.61875,-0.0214 -0.9535715,-0.0214 -0.3508928,0 -0.6991071,0.0161 -0.9,0.0214 l 0,-0.21696 C 4.2330357,9.66245 4.4071429,9.70535 4.4071429,9.09997 l 0,-2.93036 c 0,-0.60535 -0.1714286,-0.5625 -0.5892858,-0.64018 l 0,-0.21696 c 0.6910715,0.0268 1.4223215,-0.0161 1.8991072,-0.0161 0.8491071,0 1.4973214,0.38571 1.4973214,1.22143 0,0.56518 -0.4473214,1.13035 -1.05,1.27232 C 6.5285714,8.43833 6.9678571,9.01155 7.2946429,9.3678 7.4875,9.57673 7.7553571,9.76155 8.0232143,9.76155 l 0,0.19553 z M 8.6366071,6.34107 c -0.6241071,0 -0.8625,-0.42053 -0.8625,-0.8625 l 0,-0.8625 c 0,-0.32678 0.2357143,-0.81428 0.9107143,-0.81428 0.675,0 0.8142857,0.47946 0.8142857,0.47946 L 9.2125,4.47411 c 0,0 -0.1473214,-0.33482 -0.5276786,-0.33482 -0.2116071,0 -0.5276785,0.19553 -0.5276785,0.52767 l 0,0.71786 c 0,0.35893 0.1767857,0.62411 0.4794642,0.62411 0.3776786,0 0.5758929,-0.29197 0.5758929,-0.71786 l -0.4794643,0 0,-0.28661 0.8142857,0 c 0,0.54911 0.1258929,1.33661 -0.9107143,1.33661 z M 5.5160714,7.53839 c -0.2517857,0 -0.3642857,-0.008 -0.5357143,-0.0214 l 0,-1.86696 c 0.1714286,-0.0161 0.4017858,-0.0161 0.6026786,-0.0161 0.6241072,0 0.9964286,0.32678 0.9964286,0.92411 0,0.5866 -0.4017857,0.98035 -1.0633929,0.98035 z"/>
</svg>

<svg aria-hidden="true" xmlns="http://www.w3.org/2000/svg" viewBox="0 0 14 14" height="1em" width="1em">
  <path d="M1 1v12h12V1H1Zm7.023 8.957c-.177.08-.89.16-1.34-.38-.245-.284-.677-.892-1.13-1.704-.238 0-.393 0-.573-.016V9.1c0 .63.161.568.691.64v.217a26.319 26.319 0 0 0-.953-.021c-.351 0-.7.016-.9.021V9.74c.415-.078.59-.035.59-.64V6.17c0-.606-.172-.563-.59-.64v-.218c.69.027 1.422-.016 1.899-.016.85 0 1.497.386 1.497 1.222 0 .565-.447 1.13-1.05 1.272a8.933 8.933 0 0 0 1.13 1.578c.194.209.461.394.73.394v.195zm.614-3.616c-.624 0-.863-.42-.863-.862v-.863c0-.327.236-.814.91-.814.676 0 .815.48.815.48l-.287.192s-.147-.335-.527-.335c-.212 0-.528.196-.528.528v.718c0 .359.177.624.48.624.377 0 .576-.292.576-.718h-.48v-.287h.814c0 .55.126 1.337-.91 1.337zm-3.12 1.197c-.253 0-.365-.008-.537-.021V5.65c.172-.016.402-.016.603-.016.624 0 .996.327.996.924 0 .587-.401.98-1.063.98z"/>
</svg>
